X: 148111
T: DORNOCH LINKS
%R: march
B: James Kerr "Merry Melodies" v.1 p.48 s.1 #11
Z: 2016 John Chambers <jc:trillian.mit.edu>
M: 2/4
L: 1/16
K: A
|: (af) |\
e2A2 c2(Bc) | e2A2A2 (af) |\
e2c2 c2(Bc) | f2B2B2 (cd) |\
(efed) c2BA | c2e2 a2c2 |\
d2f2 B2(ed) | c2A2A2 :|
|: ue2 |\
a4 (e2fg) | a2ed c2BA |\
a4 (ef)ec | d2B2B2 e2 |\
a4 e2fg | (aefd) c2BA |\
d2f2 B2(ed) | c2A2A2 :|

%%sep 1 1 500
%%sep 1 1 500

